storage/app/icons/phosphoricons/duotone/unite-square-duotone.svg

<svg xmlns="http://www.w3.org/2000/svg" fill="currentColor" viewBox="0 0 256 256"><path d="M216 96v120H96v-56H40V40h120v56Z" opacity=".2"/><path d="M216 88h-48V40a8 8 0 0 0-8-8H40a8 8 0 0 0-8 8v120a8 8 0 0 0 8 8h48v48a8 8 0 0 0 8 8h120a8 8 0 0 0 8-8V96a8 8 0 0 0-8-8m-8 120H104v-48a8 8 0 0 0-8-8H48V48h104v48a8 8 0 0 0 8 8h48Z"/></svg>

<svg xmlns="http://www.w3.org/2000/svg" viewBox="0 0 256 256" fill="currentColor"><path d="M216,96V216H96V160H40V40H160V96Z" opacity="0.2"/><path d="M216,88H168V40a8,8,0,0,0-8-8H40a8,8,0,0,0-8,8V160a8,8,0,0,0,8,8H88v48a8,8,0,0,0,8,8H216a8,8,0,0,0,8-8V96A8,8,0,0,0,216,88Zm-8,120H104V160a8,8,0,0,0-8-8H48V48H152V96a8,8,0,0,0,8,8h48Z"/></svg>
